src/images/crypto-icon-svg/etc.svg

<svg xmlns="http://www.w3.org/2000/svg" width="32" height="32" viewBox="0 0 32 32">
  <g fill="none" fill-rule="evenodd">
    <circle cx="16" cy="16" r="16" fill="#669073"/>
    <path fill="#FFF" d="M9.26925954,14.7537415 L16.5617053,11.7714286 L23.6297681,14.829932 L16.5504862,4 L9.26925954,14.7537415 Z M9.29169783,18.062585 L16.5729245,22.155102 L24,18.062585 L16.6402393,28 L9.29169783,18.062585 Z M16.5953628,13.229932 L23.9775617,16.4190476 L16.5953628,20.4244898 L9,16.3319728 L16.5953628,13.229932 Z"/>
  </g>
</svg>

<svg xmlns="http://www.w3.org/2000/svg" width="32" height="32"><g fill="none" fill-rule="evenodd"><circle cx="16" cy="16" r="16" fill="#669073"/><path fill="#FFF" d="M9.27 14.754l7.292-2.983 7.068 3.059L16.55 4 9.27 14.754zm.022 3.309l7.28 4.092L24 18.063 16.64 28l-7.348-9.937zm7.303-4.833l7.383 3.189-7.383 4.005L9 16.332l7.595-3.102z"/></g></svg>
